X: 1
T: the Toy Parade
T: theme to Leave It to Beaver
C: D.Kahn, M.Lenard, M.Greene 1958
R: jig
Z: 2011 John Chambers <jc:trillian.mit.edu>
M: 6/8
L: 1/8
K: F
C \
| "F"FzA cAF | "Gm"GzB "C"dzc | "F"EFf "Gm"dzB | "Gm"G3- "C7"GzC \
| "F"FzA cAF | "Gm"GzB "C"dzc | "F"=Bcf "C7"_BGE | "F"F3- Fz :|
z \
| "A7"A3 G3 | "A7"FGF ^D2E | "Dm"^CDe dAF | "Dm"A6 \
| "G7"G3 F3 | "G7"EFE ^C2D | "C7"EF^F GeG | "C7"c3- "d.C."cz |]
